!!!OTL: Kuckuk.
!!!ARE: Europa, Mitteleuropa, Deutschland
!!!SCT: A0167
!!!TXL: @@GMH
!!!YEM: Copyright 1995, estate of Helmut Schaffrath.
**kern	**text
*M4/2	*
*met(c|)	*
*clefC4	*
*k[b-]	*
*F:ion	*
=1	=1
!LO:TX:a:t=jon.	!
1ryy	.
2ryy	.
{2F	Der
=2	=2
2G	gutʒ-
2F	-gauch
2E	auf
2F	dem
=3	=3
1G	ʒau-
1A	-ne
=4	=4
1F	ſaß,
2r}	.
{2F	der
=5	=5
2A	gutʒgauch
2A	.
2B-	auf
2B-	dem
=6	=6
1c	ʒau-
1c	-ne
=7	=7
*lig	*
2.G	ſaß,
8AL	.
8B-J	.
2c}	.
*Xlig	*
{2c	es
=8	=8
2B-	reg-
2A	-net
2G	ſer
2F	und
=9	=9
1G	er
1E	ward
=10	=10
*lig	*
2.F	naß,
4G	.
2A/}	.
*Xlig	*
{2c	es
=11	=11
2B-	reg-
2A	-net
2G	ſer
2F	und
=12	=12
1G	er
1E	ward
=13	=13
0F/ll}	naß.
==	==
!!!GTL: Liebeslieder
!!!AGN: Romanze, Ballade, Lied
!! Forster II 1540 No. 29.
!!!ONB: ESAC (Essen Associative Code) Database: ALTDEU
!!!AMT: simple quadruple
!!!AIN: vox
!!!EED: Helmut Schaffrath
!!!EEV: 1.0
!!!RDF**kern: l = terminal long
!!!AMD: Ionian
!!!URL-scan: https://rosdok.uni-rostock.de/mcrviewer/recordIdentifier/rosdok_ppn738218359/iview2/phys_0332.iview2?x=-2231.2783251231526&y=-2076.2866995099466&scale=0.2314709236031927&rotation=0&layout=singlePageLayout&logicalDiv=log_0009
!!!ENC: Anna Maria Matuszewska
!!!EEV: 2024/07/03
*-	*-
